src/assets/img/epic_logo.svg

<svg width="131" height="69" viewBox="0 0 131 69" fill="none" xmlns="http://www.w3.org/2000/svg">
<g clip-path="url(#clip0)">
<path d="M11.0566 31.3636C13.8208 31.3636 16.2887 29.3723 16.2887 21.7056C16.2887 13.5411 20.1388 10.355 24.0875 8.96104L26.8517 13.4416C23.7914 14.5368 21.9157 16.4286 21.9157 23.5974C21.9157 31.1645 19.349 33.2554 17.7695 33.7533C19.349 34.2511 21.9157 36.4416 21.9157 44.0087C21.9157 51.1775 23.5939 53.0693 26.8517 54.1645L24.0875 58.5455C20.1388 57.2511 16.2887 53.8658 16.2887 45.8009C16.2887 38.1342 13.8208 36.1429 11.0566 36.1429V31.3636Z" fill="white"/>
<path d="M47.5827 13.5411V17.1256H35.8352V22.2035H44.2263V25.8875H35.8352V32.0606H47.5827V35.645H31.689V13.5411H47.5827Z" fill="white"/>
<path d="M51.1365 35.645V13.5411H62.5879C67.2277 13.5411 68.7084 16.8269 68.7084 21.1082C68.7084 24.8918 66.9315 28.3766 62.6866 28.3766H55.2827V35.645H51.1365ZM61.4032 24.8918C63.1802 24.8918 64.0687 23.5974 64.0687 21.1082C64.0687 18.4199 63.1802 17.1256 61.502 17.1256H55.2827V24.8918H61.4032Z" fill="white"/>
<path d="M76.4086 13.5411V35.645H72.2625V13.5411H76.4086Z" fill="white"/>
<path d="M91.1178 13.0433C93.0922 13.0433 95.6589 13.4416 97.4358 13.8398L96.5474 17.5238C95.4615 17.1256 93.3884 16.8269 91.9076 16.8269C87.1691 16.8269 85.2934 17.6234 85.2934 24.394C85.2934 31.1645 87.0704 32.2598 91.9076 32.2598C93.3884 32.2598 95.4615 31.9611 96.5474 31.5628L97.4358 35.3463C95.7576 35.8442 93.1909 36.1429 91.1178 36.1429C84.2075 36.1429 80.8511 33.4546 80.8511 24.4935C80.8511 15.4329 84.2075 13.0433 91.1178 13.0433Z" fill="white"/>
<path d="M41.166 42.8138C40.3763 42.5151 38.7968 42.316 37.316 42.316C34.9467 42.316 33.9595 42.8138 33.9595 44.2078C33.9595 45.303 34.5518 45.8009 37.2173 46.0996C40.6724 46.4978 42.1532 47.6926 42.1532 50.5801C42.1532 54.0649 40.0801 55.2597 35.8352 55.2597C34.2557 55.2597 32.4787 54.961 31.2941 54.5628L31.8864 52.1732C32.7749 52.4719 34.3544 52.671 35.8352 52.671C38.2044 52.671 39.1916 52.2727 39.1916 50.6796C39.1916 49.5844 38.698 48.8874 35.8352 48.5887C32.5775 48.29 31.0967 47.2944 31.0967 44.5065C31.0967 41.0216 33.2685 39.7273 37.316 39.7273C38.8955 39.7273 40.6724 40.026 41.7583 40.4242L41.166 42.8138Z" fill="white"/>
<path d="M47.6814 54.961H44.9172V40.1255H47.6814V54.961ZM53.9007 54.961C50.9391 50.0822 48.5698 47.4935 47.7801 47.0952C48.6686 46.3983 50.9391 43.9091 53.5058 40.1255H56.8622C54.1968 43.9091 52.025 46.2987 51.334 46.8961C52.025 47.3939 54.3943 49.9827 57.3558 54.8615H53.9007V54.961Z" fill="white"/>
<path d="M61.6994 40.1255V54.961H58.9353V40.1255H61.6994Z" fill="white"/>
<path d="M68.1162 40.1255V52.4719H75.0265V54.961H65.3521V40.1255H68.1162Z" fill="white"/>
<path d="M79.7651 40.1255V52.4719H86.6754V54.961H77.001V40.1255H79.7651Z" fill="white"/>
<path d="M97.9294 42.8138C97.1397 42.5151 95.5602 42.316 94.0794 42.316C91.7101 42.316 90.723 42.8138 90.723 44.2078C90.723 45.303 91.3153 45.8009 93.9807 46.0996C97.4358 46.4978 98.9166 47.6926 98.9166 50.5801C98.9166 54.0649 96.8435 55.2597 92.5986 55.2597C91.0191 55.2597 89.2422 54.961 88.0575 54.5628L88.6499 52.1732C89.5383 52.4719 91.1178 52.671 92.5986 52.671C94.9679 52.671 95.9551 52.2727 95.9551 50.6796C95.9551 49.5844 95.4615 48.8874 92.5986 48.5887C89.3409 48.29 87.8601 47.2944 87.8601 44.5065C87.8601 41.0216 90.0319 39.7273 94.0794 39.7273C95.6589 39.7273 97.4358 40.026 98.5218 40.4242L97.9294 42.8138Z" fill="white"/>
<path d="M118.66 36.2424C115.896 36.2424 113.428 38.2338 113.428 45.9004C113.428 54.0649 109.578 57.3506 105.629 58.645L102.865 54.2641C106.024 53.0693 107.801 51.2771 107.801 44.1082C107.801 36.5411 110.368 34.3506 111.947 33.8528C110.368 33.355 107.801 31.2641 107.801 23.697C107.801 16.5281 106.024 14.6364 102.865 13.5411L105.629 8.96104C109.578 10.2554 113.428 13.5411 113.428 21.7056C113.428 29.3723 115.896 31.3636 118.66 31.3636V36.2424Z" fill="white"/>
</g>
<defs>
<clipPath id="clip0">
<rect width="131" height="69" fill="white"/>
</clipPath>
</defs>
</svg>

<svg width="131" height="69" fill="none" xmlns="http://www.w3.org/2000/svg"><g clip-path="url(#clip0)" fill="#fff"><path d="M11.057 31.364c2.764 0 5.232-1.992 5.232-9.658 0-8.165 3.85-11.351 7.798-12.745l2.765 4.48c-3.06 1.096-4.936 2.988-4.936 10.156 0 7.567-2.567 9.658-4.146 10.156 1.579.498 4.146 2.689 4.146 10.256 0 7.169 1.678 9.06 4.936 10.155l-2.765 4.381c-3.948-1.294-7.798-4.68-7.798-12.744 0-7.667-2.468-9.658-5.232-9.658v-4.78zM47.583 13.541v3.585H35.835v5.077h8.391v3.684h-8.39v6.174h11.747v3.584H31.689V13.541h15.894zM51.136 35.645V13.541h11.452c4.64 0 6.12 3.286 6.12 7.567 0 3.784-1.776 7.269-6.021 7.269h-7.404v7.268h-4.147zm10.267-10.753c1.777 0 2.666-1.295 2.666-3.784 0-2.688-.889-3.982-2.567-3.982h-6.22v7.766h6.121zM76.409 13.541v22.104h-4.147V13.541h4.147zM91.118 13.043c1.974 0 4.54.399 6.318.797l-.889 3.684c-1.085-.398-3.159-.697-4.64-.697-4.738 0-6.614.796-6.614 7.567 0 6.77 1.777 7.866 6.615 7.866 1.48 0 3.553-.299 4.64-.697l.888 3.783c-1.678.498-4.245.797-6.318.797-6.91 0-10.267-2.688-10.267-11.65 0-9.06 3.356-11.45 10.267-11.45zM41.166 42.814c-.79-.299-2.37-.498-3.85-.498-2.37 0-3.357.498-3.357 1.892 0 1.095.593 1.593 3.258 1.892 3.455.398 4.936 1.593 4.936 4.48 0 3.485-2.073 4.68-6.318 4.68-1.58 0-3.356-.299-4.54-.697l.591-2.39c.889.299 2.468.498 3.95.498 2.368 0 3.356-.398 3.356-1.991 0-1.096-.494-1.793-3.357-2.091-3.258-.299-4.738-1.295-4.738-4.082 0-3.485 2.172-4.78 6.219-4.78 1.58 0 3.356.299 4.442.697l-.592 2.39zM47.681 54.961h-2.764V40.126h2.764V54.96zm6.22 0c-2.962-4.879-5.331-7.468-6.12-7.866.888-.697 3.158-3.186 5.725-6.97h3.356c-2.665 3.784-4.837 6.174-5.528 6.771.691.498 3.06 3.087 6.022 7.965H53.9v.1zM61.7 40.126V54.96h-2.765V40.126H61.7zM68.116 40.126v12.346h6.91v2.489h-9.674V40.126h2.764zM79.765 40.126v12.346h6.91v2.489h-9.674V40.126h2.764zM97.93 42.814c-.79-.299-2.37-.498-3.85-.498-2.37 0-3.357.498-3.357 1.892 0 1.095.592 1.593 3.258 1.892 3.455.398 4.936 1.593 4.936 4.48 0 3.485-2.073 4.68-6.318 4.68-1.58 0-3.357-.299-4.541-.697l.592-2.39c.888.299 2.468.498 3.949.498 2.369 0 3.356-.398 3.356-1.991 0-1.096-.493-1.793-3.356-2.091-3.258-.299-4.739-1.295-4.739-4.082 0-3.485 2.172-4.78 6.22-4.78 1.579 0 3.356.299 4.442.697l-.593 2.39zM118.66 36.242c-2.764 0-5.232 1.992-5.232 9.658 0 8.165-3.85 11.45-7.799 12.745l-2.764-4.38c3.159-1.196 4.936-2.988 4.936-10.157 0-7.567 2.567-9.757 4.146-10.255-1.579-.498-4.146-2.589-4.146-10.156 0-7.169-1.777-9.06-4.936-10.156l2.764-4.58c3.949 1.294 7.799 4.58 7.799 12.745 0 7.666 2.468 9.658 5.232 9.658v4.878z"/></g><defs><clipPath id="clip0"><path fill="#fff" d="M0 0h131v69H0z"/></clipPath></defs></svg>
